X: 25950
T: Maurice O'Keeffe's
R: polka
M: 2/4
K: Dmajor
|:F^E/F/ GF/G/|BA D>d|cA Bc|BA FD|
F^E/F/ GF/G/|BA D>d|cA GE|1 D2 DE:|2 D2- De||
f2 fg|fd A>d|cA Bc|BA Fd|
f2 fg|fd A>d|cA Bc|d2 de|
f2 fg|fd A>d|cA Bc|BA FD|
F^E/F/ GF/G/|BA D>d|cA GE|D2 DE||

